X:6144
T:Soldier's Daughter,The. HSJJ.131
O:england
M:2/4
L:1/8
Q:350
S:HSJ Jackson,Wyresdale,Lancs.1823
R:Reel
A:Lancashire
H:1823
K:C
g|ecfd|gece|fedc|BGGg|ecfd|gec'e|fagB|c2c:|
|:B/-c/|dff2|eg~g2|faAd|dB~G2|dfef|egfg|aggB|c2c:|]


